X:1
T:Here rests his head - Battishill
T:James Gibb editions
T:#
%%score [ 1 2 3 ]
L:1/8
Q:1/4=96
M:4/4
K:F
V:1 treble nm="Soprano" snm="S"
V:2 treble nm="Alto" snm="A"
V:3 bass nm="Bass" snm="B"
V:1
"^Thomas Gray\n(1716-71)""^Here rests his head""^Jonathan Battishill\n(1738-1801)" A4 A2 A2 | %1
w: Here rests his|
 c6 F2 | G2 A2 B3 B | (B2 A2) z2 A2 | A6 A2 | (B>A) B2 z2 D>B | B4 A4 |[M:4/4] (A2 G2) z2 F2 | %8
w: head u-|pon the lap of|earth, * A|youth to|for\- * tune and to|fame un-|known: * Fair|
 F4 A4 | c6 c2 | d2 c2 A2 =B2 | c4 z2 _B2 | A6 (A>G) | G2 c2 z4 | d2 (G3/2A/4B/4) (A2 G>)F | %15
w: Sci- ence|frown'd not|on his hum- ble|birth, And|Me- lan\- *|cho- ly|mark'd him * * for * her|
 F4 z4 | A4 G2 F2 | c2 c2 z2 c>_e | d6 (cB) | (A4 G2) e2- | e4 e3 d | ^c3 c d2 A2 | A6 G2 | %23
w: own.|Large was his|boun- ty, and his|soul sin\- *|cere, * Heav'n|* did a|re- com- pense as|large- ly|
 (F2 E2) z4 | z2 e2 e2 f2 | f2 e2 z4 | e2 ^f2 g2 z3/2 e/ | (d2 ^c2) z2 c2 | d6 =c2 | %29
w: send; *|He gave to|mis- 'ry|all he had, a|tear; * He|gain'd from|
 (cB) z3/2 A/ G2 A2 | (GF) z2 z2 (E>D) | D4 z2 z3/2 C/ | F4 A4 | c6 c2 | d2 c2 B2 A2 | %35
w: heav'n * 'twas all he|wish'd, * a *|friend. No|far- ther|seek his|me- rits to dis-|
 (A2 G2) z2 G2 | G6 G2 | c2 c4 c>c | f4 =B4 | c8 | c4 _e3 d | d6 d2 | f2 f2 f2 f2 | (f2 e4) c2 | %44
w: close, * Or|draw his|frail- ties from their|dread a-|bode:|There they a-|like in|tremb- ling hope re-|pose, * The|
 (de) f2 e2 d2 | c2 B2 z2 z d | c2 A2 (GF) (G>A) | F2 A2 c4- | c2 B2 A2 G2 | (fe/f/) c2 z4 | %50
w: bo\- * som of his|Fa- ther, his|Fa- ther and * his *|God, the bo\-|* som of his|Fa\- * * ther|
 A4 (G3 F) | F8 |] %52
w: and his *|God.|
V:2
 C4 C2 F2 | F6 F2 | F2 E2 F2 G2 | C4 z2 C2 | C6 C2 | F2 F2 z2 B,>D | C6 F2 |[M:4/4] (F2 E2) z2 C2 | %8
w: Here rests his|head u-|pon the lap of|earth, A|youth to|for- tune and to|fame un-|known: * Fair|
 C4 C2 F2- | F4 C2 F2- | F2 E2 F3 G | (FE) (DC) G4- | G2 C2 (F4- | FE) (DC) F4- | F2 F2 (F2 E>)F | %15
w: Sci- ence frown'd|* not on|* his hum- ble|birth, * And * Me\-|* lan- cho\-|* * ly * mark'd|* him for * her|
 F4 z4 | F4 E2 F2 | (F>E) F2 F4- | F2 (ED) G3 G | (F4 E2) z2 | G4 G2 G2 | G2 E2 F2 E2 | %22
w: own.|Large was his|boun\- * ty, and|* his * soul sin-|cere, *|Heav'n did a|re- com- pense as|
 F4 (E2 D2) | (D2 ^C2) z2 A2 | A8- | A2 B2 B>A A2- | A2 A2 G2 z3/2 G/ | (F2 E2) z2 E2 | A6 A2 | %29
w: large- ly *|send; * He|gave|* to mis- 'ry all|* he had, a|tear; * He|gain'd from|
 G2 z3/2 F/ E2 F2 | (ED) z2 z2 (^C>D) | D4 z2 (CB,) | A,4 C2 F2- | F6 F2 | F2 E2 (FG) (C>F) | %35
w: heav'n 'twas all he|wish'd, * a *|friend. No *|far- ther seek|* his|me- rits to * dis\- *|
 (F2 E2) z2 E2- | E2 (CD) (EF) (G2- | G2 F>E) F2 E>A | (A3 G) F4 | E8 | F4 F3 F | F4 F2 _A2- | %42
w: close, * Or|* draw * his * frail\-|* * * ties from their|dread * a-|bode:|There they a-|like in tremb\-|
 A2 _A2 A2 A2 | G4 C2 (F2- | FG) A2 B2 E2 | (F2 ED) EF G2- | GC F4 E2 | F4 z2 A2 | G2 F4 ED | %49
w: * ling hope re-|pose, The bo\-|* * som of his|Fa\- * * ther, his Fa-|* ther and his|God, the|bo- som of his|
 C4 C2 F2 | x4 E4 | F8 |] %52
w: Fa- ther and|his|God.|
V:3
 F,4 F,2 F,2 | A,,6 A,,2 | B,,2 C,2 D,2 E,2 | F,4 z2 F,2 | _E,6 E,2 | D,2 D,2 z2 G,>G, | E,4 F,4 | %7
w: Here rests his|head u-|pon the lap of|earth, A|youth to|for- tune and to|fame un-|
[M:4/4] C,4 z2 F,2 | A,6 F,2 | A,,6 A,,2 | B,,2 C,2 D,2 D,2 | C,4 z2 G,,2 | A,,6 B,,2 | %13
w: known: Fair|Sci- ence|frown'd not|on his hum- ble|birth, And|Me- lan-|
 C,2 A,,2 z2 D,>A,, | B,,4 C,4 | F,4 z4 | F,4 C2 D2 | (A,>G,) A,2 z2 A,>A, | B,6 (A,G,) | C,6 z2 | %20
w: cho- ly mark'd him|for her|own.|Large was his|boun\- * ty, and his|soul sin\- *|cere,|
 B,6 B,>B, | A,2 G,2 F,2 ^C,2 | D,4 B,,4 | A,,4 z4 | z2 ^C2 C2 D2 | D2 ^C2 z4 | %26
w: Heav'n did a|re- com- pense as|large- ly|send;|He gave to|mis- 'ry|
 =C2 A,2 B,2 z3/2 G,/ | A,4 z2 G,2 | F,6 ^F,2 | G,2 z3/2 A,/ B,2 G,2 | A,2 z2 z2 A,2 | D,4 z2 E,2 | %32
w: all he had, a|tear; He|gain'd from|heav'n 'twas all he|wish'd, a|friend. No|
 F,6 F,2 | A,,6 A,,2 | B,,2 C,2 (D,E,) F,2 | C,4 z2 C,2 | B,6 B,2 | A,2 A,4 A,>A, | D,6 D,2 | C,8 | %40
w: far- ther|seek his|me- rits to * dis-|close, Or|draw his|frail- ties from their|dread a-|bode:|
 A,4 A,3 B, | B,6 B,2 | =B,2 B,2 B,2 B,2 | C6 A,2 | B,2 A,2 G,2 B,2 | A,2 G,2 z2 B,,2 | %46
w: There they a-|like in|tremb- ling hope re-|pose, The|bo- som of his|Fa- ther, his|
 A,,2 D,2 B,,2 C,2 | F,4 z2 F2 | E2 D2 C2 B,2 | (A,>G,) A,>F, A,,3 B,, | C,6 C,2 | F,,8 |] %52
w: Fa- ther and his|God, the|bo- som of his|Fa\- * ther, his Fa- ther|and his|God.|

